icons/midnadark/mimetypes/16/text-x-changelog.svg

<svg xmlns="http://www.w3.org/2000/svg" viewBox="0 0 16 16"><path d="m2 2v1h12v-1h-12m.5 2c-.277 0-.5.223-.5.5 0 .277.223.5.5.5.277 0 .5-.223.5-.5 0-.277-.223-.5-.5-.5m1.5 0v1h9v-1h-9m0 2v1h4v-1h-4m-1.5 3c-.277 0-.5.223-.5.5 0 .277.223.5.5.5.277 0 .5-.223.5-.5 0-.277-.223-.5-.5-.5m1.5 0v1h9v-1h-9m0 2v1h8v-1h-8m-2 2v1h12v-1h-12" fill="#fff"/></svg>

<?xml version="1.0" encoding="UTF-8" standalone="no"?>
<!-- Created with Inkscape (http://www.inkscape.org/) -->

<svg
   xmlns:dc="http://purl.org/dc/elements/1.1/"
   xmlns:cc="http://creativecommons.org/ns#"
   xmlns:rdf="http://www.w3.org/1999/02/22-rdf-syntax-ns#"
   xmlns:svg="http://www.w3.org/2000/svg"
   xmlns="http://www.w3.org/2000/svg"
   xmlns:sodipodi="http://sodipodi.sourceforge.net/DTD/sodipodi-0.dtd"
   xmlns:inkscape="http://www.inkscape.org/namespaces/inkscape"
   width="16"
   height="16"
   id="svg2"
   version="1.1"
   inkscape:version="0.91 r13725"
   viewBox="0 0 16 16"
   sodipodi:docname="text-x-changelog.svg">
  <defs
     id="defs4" />
  <sodipodi:namedview
     id="base"
     pagecolor="#ffffff"
     bordercolor="#666666"
     borderopacity="1.0"
     inkscape:pageopacity="0.0"
     inkscape:pageshadow="2"
     inkscape:zoom="31.678384"
     inkscape:cx="-6.7134524"
     inkscape:cy="9.0178528"
     inkscape:document-units="px"
     inkscape:current-layer="layer1"
     showgrid="true"
     inkscape:showpageshadow="false"
     borderlayer="true"
     inkscape:window-width="1366"
     inkscape:window-height="687"
     inkscape:window-x="0"
     inkscape:window-y="0"
     inkscape:window-maximized="1"
     units="px"
     inkscape:snap-bbox="true"
     inkscape:snap-global="true">
    <inkscape:grid
       type="xygrid"
       id="grid4101" />
    <sodipodi:guide
       position="2,14.000017"
       orientation="12,0"
       id="guide4071" />
    <sodipodi:guide
       position="2,2.0000174"
       orientation="0,12"
       id="guide4073" />
    <sodipodi:guide
       position="14,2.0000174"
       orientation="-12,0"
       id="guide4075" />
    <sodipodi:guide
       position="14,14.000017"
       orientation="0,-12"
       id="guide4077" />
  </sodipodi:namedview>
  <metadata
     id="metadata7">
    <rdf:RDF>
      <cc:Work
         rdf:about="">
        <dc:format>image/svg+xml</dc:format>
        <dc:type
           rdf:resource="http://purl.org/dc/dcmitype/StillImage" />
        <dc:title />
      </cc:Work>
    </rdf:RDF>
  </metadata>
  <g
     inkscape:label="Capa 1"
     inkscape:groupmode="layer"
     id="layer1"
     transform="translate(0,-1036.3622)">
    <path
       style="opacity:1;fill:#ffffff;fill-opacity:1;stroke:none;stroke-opacity:1"
       d="M 2 2 L 2 3 L 14 3 L 14 2 L 2 2 z M 2.5 4 C 2.223 4 2 4.223 2 4.5 C 2 4.777 2.223 5 2.5 5 C 2.777 5 3 4.777 3 4.5 C 3 4.223 2.777 4 2.5 4 z M 4 4 L 4 5 L 13 5 L 13 4 L 4 4 z M 4 6 L 4 7 L 8 7 L 8 6 L 4 6 z M 2.5 9 C 2.223 9 2 9.223 2 9.5 C 2 9.777 2.223 10 2.5 10 C 2.777 10 3 9.777 3 9.5 C 3 9.223 2.777 9 2.5 9 z M 4 9 L 4 10 L 13 10 L 13 9 L 4 9 z M 4 11 L 4 12 L 12 12 L 12 11 L 4 11 z M 2 13 L 2 14 L 14 14 L 14 13 L 2 13 z "
       transform="translate(0,1036.3622)"
       id="rect4141" />
  </g>
</svg>
